austria/municipalities/40910.svg

<?xml version="1.0" encoding="UTF-8"?>
<!DOCTYPE svg PUBLIC "-//W3C//DTD SVG 1.1//EN" "http://www.w3.org/Graphics/SVG/1.1/DTD/svg11.dtd">
<svg xmlns="http://www.w3.org/2000/svg" version="1.1" width="166px" height="207px" style="shape-rendering:geometricPrecision; text-rendering:geometricPrecision; image-rendering:optimizeQuality; fill-rule:evenodd; clip-rule:evenodd" xmlns:xlink="http://www.w3.org/1999/xlink">
<g><path style="opacity:1" fill="#000000" d="M -0.5,-0.5 C 54.8333,-0.5 110.167,-0.5 165.5,-0.5C 165.5,43.8333 165.5,88.1667 165.5,132.5C 159.745,165.461 141.411,188.628 110.5,202C 105.336,203.369 100.336,204.869 95.5,206.5C 86.8333,206.5 78.1667,206.5 69.5,206.5C 29.5404,196.538 6.20705,171.205 -0.5,130.5C -0.5,86.8333 -0.5,43.1667 -0.5,-0.5 Z"/></g>
<g><path style="opacity:1" fill="#003266" d="M 3.5,3.5 C 56.1667,3.5 108.833,3.5 161.5,3.5C 161.5,20.1667 161.5,36.8333 161.5,53.5C 144.5,53.5 127.5,53.5 110.5,53.5C 110.5,43.5 110.5,33.5 110.5,23.5C 91.5,23.5 72.5,23.5 53.5,23.5C 53.5,33.5 53.5,43.5 53.5,53.5C 36.8333,53.5 20.1667,53.5 3.5,53.5C 3.5,36.8333 3.5,20.1667 3.5,3.5 Z"/></g>
<g><path style="opacity:1" fill="#fefffe" d="M 56.5,26.5 C 73.8333,26.5 91.1667,26.5 108.5,26.5C 108.5,35.5 108.5,44.5 108.5,53.5C 91.1667,53.5 73.8333,53.5 56.5,53.5C 56.5,44.5 56.5,35.5 56.5,26.5 Z"/></g>
<g><path style="opacity:1" fill="#fefffe" d="M 3.5,55.5 C 20.1667,55.5 36.8333,55.5 53.5,55.5C 53.5,64.8333 53.5,74.1667 53.5,83.5C 36.8333,83.5 20.1667,83.5 3.5,83.5C 3.5,74.1667 3.5,64.8333 3.5,55.5 Z"/></g>
<g><path style="opacity:1" fill="#cb0000" d="M 56.5,55.5 C 73.8333,55.5 91.1667,55.5 108.5,55.5C 108.5,65.5 108.5,75.5 108.5,85.5C 126.167,85.5 143.833,85.5 161.5,85.5C 161.667,102.503 161.5,119.503 161,136.5C 160.548,139.149 159.714,141.649 158.5,144C 150.808,147.248 142.808,148.248 134.5,147C 128.948,145.029 123.281,143.529 117.5,142.5C 109.308,143.505 101.308,145.338 93.5,148C 84.8434,149.336 76.5101,148.336 68.5,145C 58.35,143.022 48.35,143.689 38.5,147C 27.3304,148 16.6638,146.167 6.5,141.5C 5.2096,139.343 4.37627,137.01 4,134.5C 3.50007,118.17 3.3334,101.837 3.5,85.5C 21.1667,85.5 38.8333,85.5 56.5,85.5C 56.5,75.5 56.5,65.5 56.5,55.5 Z"/></g>
<g><path style="opacity:1" fill="#fefffe" d="M 110.5,55.5 C 127.5,55.5 144.5,55.5 161.5,55.5C 161.5,64.8333 161.5,74.1667 161.5,83.5C 144.5,83.5 127.5,83.5 110.5,83.5C 110.5,74.1667 110.5,64.8333 110.5,55.5 Z"/></g>
<g><path style="opacity:1" fill="#010101" d="M 77.5,75.5 C 83.9323,74.347 89.4323,76.0137 94,80.5C 98.0489,86.9808 100.716,93.9808 102,101.5C 103.916,99.1938 106.416,97.8605 109.5,97.5C 110.308,97.8076 110.975,98.3076 111.5,99C 106.298,107.986 101.465,117.153 97,126.5C 94.3413,130.236 90.8413,132.569 86.5,133.5C 86.6641,136.187 86.4974,138.854 86,141.5C 83.6667,142.833 81.3333,142.833 79,141.5C 78.8184,138.774 78.3184,136.107 77.5,133.5C 72.5813,131.415 68.7479,128.081 66,123.5C 62.7955,117.756 60.1289,111.756 58,105.5C 51.6111,97.3844 53.1111,95.7177 62.5,100.5C 64.3944,94.2664 66.8944,88.2664 70,82.5C 71.7668,79.228 74.2668,76.8947 77.5,75.5 Z"/></g>
<g><path style="opacity:1" fill="#fefffe" d="M 77.5,77.5 C 81.6372,77.1463 85.6372,77.6463 89.5,79C 94.3542,84.8895 97.6876,91.5562 99.5,99C 98.5275,103.227 96.5275,104.06 93.5,101.5C 92.8582,105.023 91.6916,108.356 90,111.5C 90.2235,107.694 90.7235,103.861 91.5,100C 90.6643,97.5103 89.9976,95.0103 89.5,92.5C 88.1779,92.33 87.0113,92.6634 86,93.5C 84.9819,91.1023 83.8153,88.769 82.5,86.5C 81.3764,88.3686 80.5431,90.3686 80,92.5C 78.6015,93.0509 77.2682,93.3842 76,93.5C 75.487,95.5206 74.3203,97.0206 72.5,98C 74.2131,101.66 74.7131,105.493 74,109.5C 73.0615,106.879 72.2281,104.212 71.5,101.5C 68.7108,104.129 66.7108,103.462 65.5,99.5C 67.4647,90.8925 71.4647,83.5592 77.5,77.5 Z"/></g>
<g><path style="opacity:1" fill="#fefffe" d="M 81.5,92.5 C 83.0794,94.2678 84.746,96.1012 86.5,98C 85.1096,101.019 85.9429,101.852 89,100.5C 89.0533,103.202 88.5533,105.869 87.5,108.5C 87.9148,110.909 88.5815,113.242 89.5,115.5C 92.0932,112.652 93.9265,109.319 95,105.5C 95.3076,106.308 95.8076,106.975 96.5,107.5C 97.8333,105.833 99.1667,104.167 100.5,102.5C 101.167,103.167 101.833,103.833 102.5,104.5C 103.582,102.216 105.248,101.05 107.5,101C 103.477,108.26 99.9774,115.76 97,123.5C 90.6823,131.899 82.849,133.733 73.5,129C 70.979,126.78 68.8123,124.28 67,121.5C 64.2165,114.48 61.0498,107.646 57.5,101C 58.1667,100.333 58.8333,100.333 59.5,101C 60.1552,102.487 61.1552,103.653 62.5,104.5C 63.2575,103.189 64.2575,102.689 65.5,103C 66.0495,104.845 67.0495,106.345 68.5,107.5C 69.1924,106.975 69.6924,106.308 70,105.5C 71.2622,109.079 72.9289,112.412 75,115.5C 76.8594,114.355 77.6927,112.688 77.5,110.5C 77.0869,107.434 76.4203,104.434 75.5,101.5C 75.9377,100.494 76.6043,100.494 77.5,101.5C 78.6558,98.2621 79.9891,95.2621 81.5,92.5 Z"/></g>
<g><path style="opacity:1" fill="#fefffe" d="M -0.5,130.5 C 6.20705,171.205 29.5404,196.538 69.5,206.5C 46.1667,206.5 22.8333,206.5 -0.5,206.5C -0.5,181.167 -0.5,155.833 -0.5,130.5 Z"/></g>
<g><path style="opacity:1" fill="#fefffe" d="M 165.5,132.5 C 165.5,157.167 165.5,181.833 165.5,206.5C 142.167,206.5 118.833,206.5 95.5,206.5C 100.336,204.869 105.336,203.369 110.5,202C 141.411,188.628 159.745,165.461 165.5,132.5 Z"/></g>
<g><path style="opacity:1" fill="#fefffe" d="M 80.5,134.5 C 81.8333,134.5 83.1667,134.5 84.5,134.5C 84.5,136.167 84.5,137.833 84.5,139.5C 83.1667,139.5 81.8333,139.5 80.5,139.5C 80.5,137.833 80.5,136.167 80.5,134.5 Z"/></g>
<g><path style="opacity:1" fill="#fefffe" d="M 6.5,144.5 C 14.4192,147.732 22.7526,149.399 31.5,149.5C 40.802,149.025 49.9686,147.692 59,145.5C 67.6539,147.494 76.3206,149.494 85,151.5C 95.2478,149.563 105.414,147.23 115.5,144.5C 124.335,146.345 133.169,148.012 142,149.5C 147.702,149.357 153.202,148.524 158.5,147C 156.638,152.102 154.304,156.935 151.5,161.5C 144.858,162.664 138.192,162.831 131.5,162C 125.631,160.098 119.631,158.931 113.5,158.5C 104.714,160.258 95.8804,161.925 87,163.5C 80.5827,163.021 74.416,161.521 68.5,159C 63.8507,158.336 59.184,157.836 54.5,157.5C 46.6369,158.45 38.8036,159.45 31,160.5C 24.4111,160.374 17.9111,159.541 11.5,158C 9.12775,153.757 7.46108,149.257 6.5,144.5 Z"/></g>
<g><path style="opacity:1" fill="#003266" d="M 49.5,159.5 C 59.9033,159.153 69.9033,160.986 79.5,165C 82.1667,165.167 84.8333,165.333 87.5,165.5C 96.4297,164.282 105.263,162.615 114,160.5C 120.408,160.968 126.575,162.468 132.5,165C 138.241,165.208 143.907,165.374 149.5,165.5C 124.077,200.915 90.7435,211.081 49.5,196C 33.7727,188.44 21.7727,176.94 13.5,161.5C 13.8333,161.167 14.1667,160.833 14.5,160.5C 26.4008,163.446 38.0674,163.113 49.5,159.5 Z"/></g>
</svg>

<svg xmlns="http://www.w3.org/2000/svg" width="166" height="207" style="shape-rendering:geometricPrecision;text-rendering:geometricPrecision;image-rendering:optimizeQuality;fill-rule:evenodd;clip-rule:evenodd"><path style="opacity:1" d="M-.5-.5h166v133c-5.755 32.961-24.089 56.128-55 69.5a236.853 236.853 0 0 0-15 4.5h-26c-39.96-9.962-63.293-35.295-70-76V-.5z"/><path style="opacity:1" fill="#003266" d="M3.5 3.5h158v50h-51v-30h-57v30h-50v-50z"/><path style="opacity:1" fill="#fefffe" d="M56.5 26.5h52v27h-52v-27zM3.5 55.5h50v28h-50v-28z"/><path style="opacity:1" fill="#cb0000" d="M56.5 55.5h52v30h53c.167 17.003 0 34.003-.5 51a25.648 25.648 0 0 1-2.5 7.5c-7.692 3.248-15.692 4.248-24 3a106.537 106.537 0 0 0-17-4.5 119.128 119.128 0 0 0-24 5.5c-8.657 1.336-16.99.336-25-3-10.15-1.978-20.15-1.311-30 2-11.17 1-21.836-.833-32-5.5a18.984 18.984 0 0 1-2.5-7c-.5-16.33-.667-32.663-.5-49h53v-30z"/><path style="opacity:1" fill="#fefffe" d="M110.5 55.5h51v28h-51v-28z"/><path style="opacity:1" fill="#010101" d="M77.5 75.5c6.432-1.153 11.932.514 16.5 5a57.55 57.55 0 0 1 8 21c1.916-2.306 4.416-3.64 7.5-4a4.451 4.451 0 0 1 2 1.5A392.896 392.896 0 0 0 97 126.5c-2.659 3.736-6.159 6.069-10.5 7a32.438 32.438 0 0 1-.5 8c-2.333 1.333-4.667 1.333-7 0a34.21 34.21 0 0 0-1.5-8c-4.919-2.085-8.752-5.419-11.5-10a108.83 108.83 0 0 1-8-18c-6.389-8.116-4.889-9.782 4.5-5a97.914 97.914 0 0 1 7.5-18c1.767-3.272 4.267-5.605 7.5-7z"/><path style="opacity:1" fill="#fefffe" d="M77.5 77.5c4.137-.354 8.137.146 12 1.5 4.854 5.89 8.188 12.556 10 20-.972 4.227-2.972 5.06-6 2.5a33.735 33.735 0 0 1-3.5 10 82.93 82.93 0 0 1 1.5-11.5 60.553 60.553 0 0 1-2-7.5c-1.322-.17-2.489.163-3.5 1a63.196 63.196 0 0 0-3.5-7 22.23 22.23 0 0 0-2.5 6c-1.398.55-2.732.884-4 1-.513 2.02-1.68 3.52-3.5 4.5 1.713 3.66 2.213 7.493 1.5 11.5a102.762 102.762 0 0 1-2.5-8c-2.79 2.629-4.79 1.962-6-2 1.965-8.608 5.965-15.94 12-22z"/><path style="opacity:1" fill="#fefffe" d="M81.5 92.5a448.182 448.182 0 0 0 5 5.5c-1.39 3.019-.557 3.852 2.5 2.5.053 2.702-.447 5.369-1.5 8a33.698 33.698 0 0 0 2 7c2.593-2.848 4.427-6.181 5.5-10a4.451 4.451 0 0 0 1.5 2l4-5 2 2c1.082-2.284 2.748-3.45 5-3.5A178.835 178.835 0 0 0 97 123.5c-6.318 8.399-14.151 10.233-23.5 5.5a36.557 36.557 0 0 1-6.5-7.5 199.763 199.763 0 0 0-9.5-20.5c.667-.667 1.333-.667 2 0 .655 1.487 1.655 2.653 3 3.5.758-1.311 1.757-1.811 3-1.5.55 1.845 1.55 3.345 3 4.5a4.451 4.451 0 0 0 1.5-2 44.357 44.357 0 0 0 5 10c1.86-1.145 2.693-2.812 2.5-5a54.194 54.194 0 0 0-2-9c.438-1.006 1.104-1.006 2 0 1.156-3.238 2.49-6.238 4-9zM-.5 130.5c6.707 40.705 30.04 66.038 70 76h-70v-76zM165.5 132.5v74h-70a236.853 236.853 0 0 1 15-4.5c30.911-13.372 49.245-36.539 55-69.5zM80.5 134.5h4v5h-4v-5z"/><path style="opacity:1" fill="#fefffe" d="M6.5 144.5c7.92 3.232 16.253 4.899 25 5a148.43 148.43 0 0 0 27.5-4c8.654 1.994 17.32 3.994 26 6a403.584 403.584 0 0 0 30.5-7 692.546 692.546 0 0 0 26.5 5c5.702-.143 11.202-.976 16.5-2.5a80.086 80.086 0 0 1-7 14.5 67.229 67.229 0 0 1-20 .5 75.304 75.304 0 0 0-18-3.5 1228.52 1228.52 0 0 1-26.5 5 57.862 57.862 0 0 1-18.5-4.5 200.418 200.418 0 0 0-14-1.5c-7.863.95-15.696 1.95-23.5 3a90.606 90.606 0 0 1-19.5-2.5 46.28 46.28 0 0 1-5-13.5z"/><path style="opacity:1" fill="#003266" d="M49.5 159.5c10.403-.347 20.403 1.486 30 5.5l8 .5a264.48 264.48 0 0 0 26.5-5 57.403 57.403 0 0 1 18.5 4.5c5.741.208 11.407.374 17 .5-25.423 35.415-58.757 45.581-100 30.5-15.727-7.56-27.727-19.06-36-34.5l1-1c11.9 2.946 23.567 2.613 35-1z"/></svg>
